public/images/type-icons/steel.svg

<svg fill="none" height="512" viewBox="0 0 512 512" width="512" xmlns="http://www.w3.org/2000/svg"><path clip-rule="evenodd" d="m.0511107 254.527c-.0681153-.116-.0681495-.26-.0000911-.377l128.7439804-219.9657c.067-.1141.19-.1843.322-.1843h255.177c.133 0 .256.0708.323.1859l127.332 219.9661c.067.115.067.258 0 .373l-127.332 219.719c-.067.115-.19.186-.323.186h-255.177c-.132 0-.255-.07-.322-.184zm374.5658893-.312c0 65.488-53.089 118.577-118.577 118.577s-118.577-53.089-118.577-118.577c0-65.489 53.089-118.577 118.577-118.577s118.577 53.088 118.577 118.577z" fill="#fff" fill-rule="evenodd"/></svg>

<svg width="512" height="512" viewBox="0 0 512 512" fill="none" xmlns="http://www.w3.org/2000/svg">
<path fill-rule="evenodd" clip-rule="evenodd" d="M0.0511107 254.527C-0.0170046 254.411 -0.0170388 254.267 0.0510196 254.15L128.795 34.1843C128.862 34.0702 128.985 34 129.117 34H384.294C384.427 34 384.55 34.0708 384.617 34.1859L511.949 254.152C512.016 254.267 512.016 254.41 511.949 254.525L384.617 474.244C384.55 474.359 384.427 474.43 384.294 474.43H129.117C128.985 474.43 128.862 474.36 128.795 474.246L0.0511107 254.527ZM374.617 254.215C374.617 319.703 321.528 372.792 256.04 372.792C190.552 372.792 137.463 319.703 137.463 254.215C137.463 188.726 190.552 135.638 256.04 135.638C321.528 135.638 374.617 188.726 374.617 254.215Z" fill="white"/>
</svg>
